!!!SOCIAL_FUNCTION:	potlatch songs
!!!PDT:	1943
!!!OTL: No_36_Potlatch_Song.krn
!!!REG: British Columbia
**kern	**kern
*staff2	*staff1
=1-	=1-
*clefF4	*clefF4
*k[f#]	*k[f#]
*M3/4	*M3/4
4GG/	[2e\
4GG/	.
4GG/	8.e\L]
.	16d\Jk
=2||	=2||
*M2/4	*M2/4
4GG/	12d\L
.	12B\
.	12B\J
4GG/	12B\L
.	12A\
.	12F#\J
=3	=3
4GG/	8.E\L
.	16E\Jk
4r	8E\
.	16r
.	16e\
=4	=4
2r	8e\L
.	16B\L
.	16B\JJ
.	8.d\L
.	16e\Jk
=5	=5
2r	12e\L
.	12B\
.	12B\J
.	12B\L
.	12A\
.	12F#\J
=6	=6
2r	8.E\L
.	16E\Jk
.	8E\
.	16r
.	16e\
=7	=7
2r	8e\L
.	16B\L
.	16B\JJ
.	8.d\L
.	16e\Jk
=8	=8
2r	12e\L
.	12B\
.	12B\J
.	12B\L
.	12A\
.	12F#\J
=9	=9
2r	8.E\L
.	16E\Jk
.	8E\
.	16r
.	16B\
=10	=10
2r	8B\L
.	16F#\L
.	16F#\JJ
.	8.A\L
.	16B\Jk
=11	=11
2r	12B\L
.	12F#\
.	12F#\J
.	12E\L
.	12F#\
.	12F#\J
=12	=12
2r	8.E\L
.	16E\Jk
.	8E\
.	8r
==	==
*-	*-
